public/avatar/shoe/176.svg

<svg xmlns:xlink="http://www.w3.org/1999/xlink" height="38.3" width="36.05" xmlns="http://www.w3.org/2000/svg"><use height="19.5" transform="translate(7.65 11.25)" width="25.25" xlink:href="#a"/><defs><g id="a" fill-rule="evenodd"><path d="M6.85.75q2.95 3.45 2 6.8-.4 1.25-3.3 2.5-3.2 1.45-3.8 2.2-2.7 3.65-5.95 3.65-3.8 0-5.3-1.9-2.25 1.1-3.6-1.4-1.55.2-2-2.3-1.75-1.65-.6-3.75.6-1.05 1.75-1.3l1.55-.35q2.3-2.15 5-3.65L-5.2-.9q1.5-1.65 3.25-2.4 1.85-.85 4.6.65Q5.1-1.4 6.85.75" fill="#1a171b" transform="translate(16.15 3.6)"/><path d="M6.15 1.35q.45.55.15 3.9-.35 3.35-1.05 3.7-3.4 1.3-4.35 2.55-2.45 3.3-5.25 3.3-3.25 0-4.55-1.55l-.4-.55-.6.25q-1.45.85-2.55-1.05l-.3-.4-.45.05q-.8.1-1.05-1.55l-.05-.35q-.15-.05-.25-.15-1.25-1.2-.45-2.7.45-.75 1.6-.9 1-.1 1.5-.55L-7 2q.5-.15 1.95-2 1.5-1.85 2.85-2.45 1.7-.75 4.3.55Q4.6-.7 6.15 1.35" fill="#fce4d7" transform="translate(16.15 3.6)"/><path d="m1.9-.95.5.1q2 .85 3.75 2.2.65.55 1.3 2 .8 1.75.45 3.05Q7.5 8 5.25 8.95 1.85 10.25.9 11.5q-2.45 3.3-5.25 3.3-3.25 0-4.55-1.55l-.4-.55-.6.25q-1.45.85-2.55-1.05l-.3-.4-.45.05q-.8.1-1.05-1.55l-.05-.35q-.15-.05-.25-.15l-.75-1.25.65.5q.8 2 1.65 1.5 1.55 2.35 3.45 1.35.95 1.4 2.55 2 2.1.9 3.75-.9L-.1 9.4q.65-.25 1.2-2.55.45-2.25.3-3.3Q1.2 2.5 1.35.8 1.5-.95 1.9-.95" fill="#f8c5a6" transform="translate(16.15 3.6)"/><path d="m-2.3-2.45 1-.25q-.3.35-1 3.6-.2 1-1.25 3.15t-1.4 2.4q-.25.25.8.5Q-3 7.3-2.9 7.7q.45 1.8.2 2.35l-2.15-.35-3.3-.35-1.7-.3q-1-.5-2.35-.5-.4-1-1.55-1 .05-.45-.7-1.4l.95-.25q1-.1 1.55-.55L-7.05 2l1.9-2q1.5-1.85 2.85-2.45" fill="#fef5f1" transform="translate(16.15 3.6)"/><path d="m-3.05 8.45-1.8-.4Q-6.9 7.85-8 8.9q-1.9 1.8-.9 4.3l-.55.55-.45-2.05q-.15-2.3 1.9-3.5 1.7-1.05 3.45-.5.95.25 1.5.75" fill="#1a171b" transform="translate(16.15 3.6)"/><path d="M-12.3 12.25q-.15.55-.7-.2-.45-1.3.05-2.7.5-1.45 1.55-1.65 1.5-.25 2.4.5-.9-.5-2.1-.25-1.65.45-1.55 2.45l.35 1.85m-2.45-2.5q-.2-.6.1-1.3.45-1.3 2.35-1.5-1.85.45-2 2.35-.1.9.15 1.7l-.6-1.25m7.9-.3-1.8.2L-9 10q-.25-.1.2-.9.4-.8 1.4-1.05 3.3-.75 4.65.6.8.85.55 1.5-.3.65-.85.4-2.1-.95-3.8-1.1m-.5-.95-.9.55L-6.8 9q1.85.2 3.7 1.05l.2.1q.15.1.25-.1l.05-.2q0-.4-.5-.9-1.15-1.15-4.25-.45" fill="#1a171b" transform="translate(16.15 3.6)"/></g></defs></svg>

<?xml version="1.0" encoding="UTF-8" standalone="no"?>
<svg xmlns:xlink="http://www.w3.org/1999/xlink" height="38.3px" width="36.05px" xmlns="http://www.w3.org/2000/svg">
  <g transform="matrix(1.0, 0.0, 0.0, 1.0, 23.8, 14.85)">
    <use height="19.5" transform="matrix(1.0, 0.0, 0.0, 1.0, -16.15, -3.6)" width="25.25" xlink:href="#shape0"/>
  </g>
  <defs>
    <g id="shape0" transform="matrix(1.0, 0.0, 0.0, 1.0, 16.15, 3.6)">
      <path d="M6.85 0.75 Q9.8 4.2 8.85 7.55 8.45 8.8 5.55 10.05 2.35 11.5 1.75 12.25 -0.95 15.9 -4.2 15.9 -8.0 15.9 -9.5 14.0 -11.75 15.1 -13.1 12.6 -14.65 12.8 -15.1 10.3 -16.85 8.65 -15.7 6.55 -15.1 5.5 -13.95 5.25 L-12.4 4.9 Q-10.1 2.75 -7.4 1.25 L-5.2 -0.9 Q-3.7 -2.55 -1.95 -3.3 -0.1 -4.15 2.65 -2.65 5.1 -1.4 6.85 0.75" fill="#1a171b" fill-rule="evenodd" stroke="none"/>
      <path d="M6.15 1.35 Q6.6 1.9 6.3 5.25 5.95 8.6 5.25 8.95 1.85 10.25 0.9 11.5 -1.55 14.8 -4.35 14.8 -7.6 14.8 -8.9 13.25 L-9.3 12.7 -9.9 12.95 Q-11.35 13.8 -12.45 11.9 L-12.75 11.5 -13.2 11.55 Q-14.0 11.65 -14.25 10.0 L-14.3 9.65 Q-14.45 9.6 -14.55 9.5 -15.8 8.3 -15.0 6.8 -14.55 6.05 -13.4 5.9 -12.4 5.8 -11.9 5.35 L-7.0 2.0 Q-6.5 1.85 -5.05 0.0 -3.55 -1.85 -2.2 -2.45 -0.5 -3.2 2.1 -1.9 4.6 -0.7 6.15 1.35" fill="#fce4d7" fill-rule="evenodd" stroke="none"/>
      <path d="M1.9 -0.95 L2.4 -0.85 Q4.4 0.0 6.15 1.35 6.8 1.9 7.45 3.35 8.25 5.1 7.9 6.4 7.5 8.0 5.25 8.95 1.85 10.25 0.9 11.5 -1.55 14.8 -4.35 14.8 -7.6 14.8 -8.9 13.25 L-9.3 12.7 -9.9 12.95 Q-11.35 13.8 -12.45 11.9 L-12.75 11.5 -13.2 11.55 Q-14.0 11.65 -14.25 10.0 L-14.3 9.65 Q-14.45 9.6 -14.55 9.5 L-15.3 8.25 -14.65 8.75 Q-13.85 10.75 -13.0 10.25 -11.45 12.6 -9.55 11.6 -8.6 13.0 -7.0 13.6 -4.9 14.5 -3.25 12.7 L-0.1 9.4 Q0.55 9.15 1.1 6.85 1.55 4.6 1.4 3.55 1.2 2.5 1.35 0.8 1.5 -0.95 1.9 -0.95" fill="#f8c5a6" fill-rule="evenodd" stroke="none"/>
      <path d="M-2.3 -2.45 L-1.3 -2.7 Q-1.6 -2.35 -2.3 0.9 -2.5 1.9 -3.55 4.05 -4.6 6.2 -4.95 6.45 -5.2 6.7 -4.15 6.95 -3.0 7.3 -2.9 7.7 -2.45 9.5 -2.7 10.05 L-4.85 9.7 -8.15 9.35 -9.85 9.05 Q-10.85 8.55 -12.2 8.55 -12.6 7.55 -13.75 7.55 -13.7 7.1 -14.45 6.15 L-13.5 5.9 Q-12.5 5.8 -11.95 5.35 L-7.05 2.0 -5.15 0.0 Q-3.65 -1.85 -2.3 -2.45" fill="#fef5f1" fill-rule="evenodd" stroke="none"/>
      <path d="M-3.05 8.45 L-4.85 8.05 Q-6.9 7.85 -8.0 8.9 -9.9 10.7 -8.9 13.2 L-9.45 13.75 -9.9 11.7 Q-10.05 9.4 -8.0 8.2 -6.3 7.15 -4.55 7.7 -3.6 7.95 -3.05 8.45" fill="#1a171b" fill-rule="evenodd" stroke="none"/>
      <path d="M-12.3 12.25 Q-12.45 12.8 -13.0 12.05 -13.45 10.75 -12.95 9.35 -12.45 7.9 -11.4 7.7 -9.9 7.45 -9.0 8.2 -9.9 7.7 -11.1 7.95 -12.75 8.4 -12.65 10.4 L-12.3 12.25" fill="#1a171b" fill-rule="evenodd" stroke="none"/>
      <path d="M-14.75 9.75 Q-14.95 9.15 -14.65 8.45 -14.2 7.15 -12.3 6.95 -14.15 7.4 -14.3 9.3 -14.4 10.2 -14.15 11.0 L-14.75 9.75" fill="#1a171b" fill-rule="evenodd" stroke="none"/>
      <path d="M-6.85 9.45 L-8.65 9.65 -9.0 10.0 Q-9.25 9.9 -8.8 9.1 -8.4 8.3 -7.4 8.05 -4.1 7.3 -2.75 8.65 -1.95 9.5 -2.2 10.15 -2.5 10.8 -3.05 10.55 -5.15 9.6 -6.85 9.45 M-7.35 8.5 L-8.25 9.05 -6.8 9.0 Q-4.95 9.2 -3.1 10.05 L-2.9 10.15 Q-2.75 10.25 -2.65 10.05 L-2.6 9.85 Q-2.6 9.45 -3.1 8.95 -4.25 7.8 -7.35 8.5" fill="#1a171b" fill-rule="evenodd" stroke="none"/>
    </g>
  </defs>
</svg>
